X: 32307
T: Pigeon On The Gate, The
R: reel
M: 4/4
K: Gmajor
BE ~E2 Bd^cA|{/^c} BA^GA BFAF|D2 (3FED AD (3FED|FGAc BAFA|
BE ~E2 Bd^cA|{/^c} BA^GA BFAF|DEFA ~d3 B|AF ~F2 E2 FA|
BE ~E2 Bd^cA|{/^c} BA^GA BFAF|D2 (3FED AD (3FED|FGAc BAFA|
BE ~E2 Bd (3^cBA|BA^GA BFAF|DEFA ~d3 B|AF ~F2 E2 F2|
(3B^cd e2 efed|(3B^cd ef {/a} gfed|~B3 ^c ~d3 B|AFdF DFAF|
(3B^cd e2 efed|(3B^cd ef g2 fg|(3agf (3gfe fd{/e}d^c|dBAF E2 F2|
(3B^cd e2 efed|(3B^cd ef {/a} gfed|BAFA d^cdB|AFdF DFAF|
~BA (3B^cd efed|(3B^cd ef g2 fg|agfe fed^c|dBAF EFGA|
BE (3EEE d(3EEEE|B(3EEEE dBAF|D2 (3FED AD (3FED|FGAc BAFA|
BE (3EEE BEdE|^cE (3EEE BFAF|DEFA ~d3 B|AFdF DEFA|
BE ~E2 Bd^cA|{/^c} BA^GA BFAF|D2 (3FED AD (3FED|FGAc BAFA|
BE ~E2 B,E ~E2|dE ~E2 BF{/G}FE|DEFA ~d3 B|AF ~F2 E2 F2|
(3B^cd e2 efed|(3B^cd ef {/a} gfed|~B3 ^c ~d3 B|AFdF DFAF|
(3B^cd e2 efed|(3B^cd ef g2 fg|(3agf (3gfe fd{/e}d^c|dBAF E2 F2|
(3B^cd e2 efed|(3B^cd ef {/a} gfed|~B3 ^c ~d3 B|AFdF DFAF|
~BA (3B^cd efed|(3B^cd ef gfef|g2 bg fa{/b}af|(3efg fd efdA|
BE ~E2 dE ~E2|~B3 d BAFE|D2 (3FED AD (3FED|FGAc BAFA|
BE ~E2 dE ~E2|~B3 d BAFE|DEFA ~d3 B|AF ~F2 E2 FA|
BE (3EEE BEdE|^cE (3EEE BFAF|D2 (3FED AD (3FED|FGAc BAFA|
BE (3EEE BEdE|^cE (3EEE BFAF|DEFA ~d3 B|AF ~F2 E2 F2|
(3B^cd e2 efed|(3B^cd ef {/a} gfed|~B3 ^c ~d3 B|AF ~F2 EFA^c|
(3B^cd e2 efed|(3B^cd ef g2 fg|abga fge^c|dBAF EFGA|
(3B^cd e2 efed|(3B^cd ef {/a} gfed|~B3 ^c ~d3 B|AFdF DFAF|
~BA (3B^cd efed|(3B^cd ef g2 fg|(3aaf ge (3fga e^c|dBAF ~E4||

